X:11
T: VOGEL FIKS UND VOGEL FAKS
N: E0623
O: Europa, Mitteleuropa, Deutschland; Frankreich, Elsass
R: Liebes - Lied
M: 3/4
L: 1/8
K: F
cc | d2c2BB | A2c2
A2 | G2B2G2 | A2c2
A2 | d2c2B2 | A2c2
AA | G2B2G2 | F2z2

